X: 43242
T: Wobbly Wheel
R: jig
M: 6/8
K: Dmixolydian
|:"D"d2 d ABc|ABc ABc|ABc deg|fdf "Am7"ecA|
"D"d2 d ABc|ABc ABc|d2 g fed|"Am7"ecA "D"d3:|
"D"a2 a fga|fga efg|d2 f fed|"Am7"ecA A3|
"D"a2 a fga|fga efg|d2 f fed|"Am7"ecA "D"d3|
"D"a2 a fga|fga efg|d2 f fed|"Am7"ecA A3|
"D"d2 d ABc|ABc ABc|d2 g fed|"Am7"ecA "D"d3||

